X: 689
T: Lugouqin shangshou
%%abc-version 2.0
%%abcx-abcm2ps-target-version 5.9.1 (29 Sep 2008)
%%abc-creator hum2abc beta
%%abcx-conversion-date 2013/10/02 07:52:30
%%abc-edited-by Helmut Schaffrath
%%humdrum-veritas 3746619516
%%humdrum-veritas-data 2821371535
%%continueall 1
%%barnumbers 0
L: 1/8
M: 2/4
K: F
c c G G [I:setbarnb 1]| 
c> cG2 | 
B B c G | 
F> EC2 | 
f B c c | 
GB2G | 
B> G D C | 
B,4 |]  



